X: 1350
T: Mehtaplı Gecelerde...
C: Sevim Şengül
O: Turkey
F: http://compmusic.upf.edu/node/140
N: ussak--sarki--duyek--mehtapli_gecelerde--sevim_sengul
N: makam= ussak
N: form= sarki
N: usul= duyek = 8/4
M: 8/4
L: 1/16
K: C _2/4B   
Q: 1/4=144
%%MIDI tuningsystem comma53
z2 e2 d2 c2 d2 e2 ge2d  | c2 d4 e2 c3B A4  | \
w:   |   | 
z2 d2 c2 B2 G2 A2 B2 c2  | 
w:   | 
c8 BA GA B4  | z2 c4 c2 c2 d2 e4  | z2 B4 B2 B2 c2 d4  | \
w:   |   |   | 
z2 d2 ^c2 A2 =c4 BA GB  | 
w:   | 
A6 B2 c2 dB A4  | z2 e2 d2 c2 d2 e2 ge2d  | \
w:   |   | 
c2 d4 e2 c3B A4  | 
w:   | 
z2 d2 c2 B2 G2 A2 B2 c2  | c8 BA GA B4  | \
w:   |   | 
z2 c4 c2 c2 d2 e4  | z2 B4 B2 B2 c2 d4  | 
w:   |   | 
z2 d2 ^c2 A2 =c4 BA GB  | A6 B2 c2 dB A4  | \
w:   |   | 
z2 c2 d2 e2 d2 c2 ge ed  | 
w:  Meh tap lı  ge ce ler  | 
d8 ge ed c2 d2  | z2 e4 ed d4 cB AB  | \
w:  de  SAZ  |  hep  se *  ni  an  | 
c8 c3/2B/ AB cd e^f  | 
w:  dım   SAZ  | 
g2 g4 a2 g2 f2 e2 d2  | c2 f4 g2 e2 d2 c2 B2  | \
w:  *  ah   |  *  ah   | 
A2 A4 B2 c2 d2 e2 ed  | 
w:  *  hep  se ni  *  an  | 
d16  | gg2a gf ed cc2d cB AG  | ag fe ed dc d3e cB A2  | 
w:  dım    |  SAZ  |  SAZ  | 
z2 c2 d2 e2 d2 c2 ge ed  | d8 ge ed c2 d2  | \
w:  Meh tap lı  ge ce ler  |  de  SAZ  | 
z2 e4 ed d4 cB AB  | 
w:  hep  se *  ni  an  | 
c8 c3/2B/ AB cd e^f  | g2 g4 a2 g2 f2 e2 d2  | \
w:  dım   SAZ  |  *  ah   | 
c2 f4 g2 e2 d2 c2 B2  | 
w:  *  ah   | 
A2 A4 B2 c2 d2 e2 ed  | d16  | gg2a gf ed cc2d cB AG  | 
w:  *  hep  se ni  *  an  |  dım    |  SAZ  | 
ag fe ed dc d3f eg f2  | z2 a2 g2 f2 e3d e2 dc  | 
w:  SAZ  |  Bel ki  ge lir *  sin   | 
e2 f6 g3/2f/ e2 a3/2g/ fe  | d2 e4 ed d4 cB AB  | \
w:  di ye  SAZ  |  *  boş  ye *  re  yan  | 
c8 zG AB c4  | 
w:  dım   SAZ  | 
z2 c4 c2 c2 d2 e4  | z2 B4 B2 B2 c2 d4  | \
w:  ah   |  ah   | 
z2 d2 ^c2 A2 =c4 BA GA  | 
w:  boş  *  ye re  yan  | 
A8 cB AB A4  | gg2a gf ed cc2d cB AG  | \
w:  dım   SAZ  |   | 
ag fe ed dc d3f eg f2  | 
w:  SAZ  | 
z2 a2 g2 f2 e3d e2 dc  | e2 f6 g3/2f/ e2 a3/2g/ fe  | \
w:  Bel ki  ge lir *  sin   |  di ye  SAZ  | 
d2 e4 ed d4 cB AB  | 
w:  *  boş  ye *  re  yan  | 
c8 zG AB c4  | z2 c4 c2 c2 d2 e4  | z2 B4 B2 B2 c2 d4  | \
w:  dım   SAZ  |  ah   |  ah   | 
z2 d2 ^c2 A2 =c4 BA GA  | 
w:  boş  *  ye re  yan  | 
A8 cB AB A4  | gg2a gf ed cc2d cB AG  | \
w:  dım   SAZ  |   | 
AB c_7/8d ef ed cB AB c4  | 
w:   | 
B2 c4 z2 _7/8d4 e4  | e2 f3/2e/ f2 _7/8a2 g2 f2 e2 _7/8d2  | \
w:  Ye ter  Al la  |  *  hım *  *  ye ter   | 
c2 c4 A2 _7/8B2 A2 ^G2 BA  | 
w:  *  çek ti ğim  *  *  çi  | 
A8 c3/2B/ AB cd e^f  | g2 g4 a2 g2 f2 e2 d2  | \
w:  le   SAZ  |  *  ah   | 
c2 f4 g2 e2 d2 c2 _3/4B2  | 
w:  *  ah   | 
A2 A4 B2 c2 d2 e2 ed  | d16  | gg2a gf ed cc2d cB AG  | 
w:  *  çek ti ğim  *  *  çi  |  le    |  SAZ  | 
ag fe ed dc d3f eg f2  | z2 a2 g2 f2 e3d e2 dc  | 
w:   |  Bel ki  ge lir *  sin   | 
e2 f6 g3/2f/ e2 a3/2g/ fe  | d2 e4 ed d4 cB AB  | \
w:  di ye  SAZ  |  *  boş  ye *  re  yan  | 
c8 zG AB c4  | 
w:  dım   SAZ  | 
z2 c4 c2 c2 d2 e4  | z2 B4 B2 B2 c2 d4  | \
w:  ah   |  ah   | 
z2 d2 ^c2 A2 =c4 BA GA  | 
w:  boş  *  ye re  yan  | 
A8 |
w:  dım    | 


